X: 20223
T: Joe Burke's
R: polka
M: 2/4
K: Gmajor
d^c/d/ gd|f/e/d B>A|GD GA/B/|A2 A2|
D/E/F/G/ A>B|cd ed|B/c/d cA|B2 B2|
d2 g/f/e/d/|ed B/c/d|GD G/A/B|A2 A2|
D/E/F/G/ A>B|B/c/d ed|B/c/d cF|G2 G2||
e>f ga|gf ed|B/c/B/A/ GB|A2 A2|
e/d/c/B/ A>G|Fd cB/A/|FD FA|B2 B2|
e2 e/f/g/a/|ga/g/ f/e/d|Bd/B/ G/B/d|A2 A2|
e/d/c/B/ A>G|Fd ^cd|Fd c/B/A/F/|G2 G2||

